resources/images/overcast.svg

<svg height="26" width="26" xmlns="http://www.w3.org/2000/svg" xmlns:xlink="http://www.w3.org/1999/xlink"><linearGradient id="a" gradientUnits="userSpaceOnUse" x1="13" x2="13" y1="-.08" y2="26.08"><stop offset="0" stop-color="#f93"/><stop offset="1" stop-color="#ff7833"/></linearGradient><linearGradient id="b" gradientUnits="userSpaceOnUse" x1="13" x2="13" y1="23.5" y2="2.5"><stop offset="0" stop-color="#292e33"/><stop offset="1" stop-color="#434e59"/></linearGradient><path d="m25.01 22.17c-.25.62-.81 1.49-1.6 2.1-.46.35-1.01.69-1.76.91-.8.24-1.79.32-3.02.32h-11.26c-1.22 0-2.22-.08-3.02-.32-.75-.22-1.3-.56-1.76-.91-.79-.61-1.35-1.48-1.59-2.1-.49-1.25-.5-2.65-.5-3.54v-11.26c0-.89.01-2.29.5-3.53.24-.63.8-1.5 1.59-2.11.46-.35 1.01-.69 1.76-.91.8-.24 1.8-.32 3.02-.32h11.26c1.23 0 2.22.08 3.02.32.75.22 1.3.56 1.76.91.79.61 1.35 1.48 1.6 2.11.49 1.24.49 2.64.49 3.53v11.26c0 .89 0 2.29-.49 3.54zm0 0" fill="url(#a)" fill-rule="evenodd"/><circle cx="13" cy="13" fill="#fff" r="9.5"/><g fill-rule="evenodd"><path d="m13 23.5c-5.8 0-10.5-4.7-10.5-10.5s4.7-10.5 10.5-10.5 10.5 4.7 10.5 10.5-4.7 10.5-10.5 10.5zm0-4.13.81-.81-.81-3.02-.81 3.02zm-1-.08-.4 1.47.94-.93zm2 0-.53.54.93.93zm.73 2.73-1.73-1.73-1.73 1.73h.01c1.14.22 2.3.22 3.43 0zm-1.73-18.2v-.01c-5.08 0-9.18 4.11-9.18 9.19 0 3.91 2.48 7.4 6.18 8.68l1.95-7.29c-.77-.58-.93-1.68-.34-2.45.58-.77 1.67-.93 2.44-.34.77.58.93 1.68.34 2.45-.09.12-.21.24-.34.34l1.96 7.29h-.01c4.79-1.65 7.34-6.88 5.69-11.68-1.28-3.7-4.77-6.19-8.69-6.19zm0 0" fill="url(#b)"/><path d="m19 17.55-.01.01c-.22.28-.62.33-.91.12h.01c-.28-.19-.35-.58-.16-.85.01-.01.01-.01.02-.02l.03-.05c1.56-2.31 1.53-5.33-.06-7.63l.03.06c-.21-.27-.16-.65.11-.85.01-.01.02-.02.03-.02v-.01c.29-.2.69-.14.91.14 1.91 2.73 1.91 6.37 0 9.1zm-3.19-1.72h-.01c-.24-.29-.23-.72.04-1 .88-1.06.88-2.6 0-3.66-.27-.28-.28-.71-.04-1.01h.01c.22-.26.61-.29.87-.07.02.01.04.03.05.05l.03.02c1.43 1.65 1.41 4.11-.06 5.73l.03-.03c-.24.25-.64.26-.89.02 0-.02-.02-.04-.03-.05zm-5.62 0c-.22.26-.61.3-.87.08-.02-.02-.04-.03-.05-.05l-.03-.03c-1.43-1.64-1.41-4.1.06-5.73l-.03.04c.24-.25.64-.26.89-.02 0 .02.02.03.03.04h.01c.24.3.23.73-.04 1.01-.88 1.06-.88 2.6 0 3.66.27.28.28.71.04 1zm-2.28 1.86c-.29.2-.69.14-.91-.14-1.91-2.73-1.91-6.37 0-9.1l.01-.01c.21-.28.62-.33.91-.12h-.01c.28.19.35.58.15.85 0 .01 0 .01-.01.02l-.03.05c-1.56 2.31-1.53 5.33.06 7.63l-.03-.06c.21.27.16.65-.11.85-.01.01-.02.02-.03.02zm0 0" fill="#f93"/></g></svg>

<?xml version="1.0" encoding="UTF-8"?>
<!DOCTYPE svg PUBLIC "-//W3C//DTD SVG 1.1//EN" "http://www.w3.org/Graphics/SVG/1.1/DTD/svg11.dtd">
<svg version="1.1" xmlns="http://www.w3.org/2000/svg" xmlns:xlink="http://www.w3.org/1999/xlink" width="26" height="26"  xml:space="preserve" id="badgeovercast">
    <!-- Generated by PaintCode - http://www.paintcodeapp.com -->
    <defs>
        <linearGradient id="badgeovercast-a2-bezier" x1="13" y1="-0.08" x2="13" y2="26.08" gradientUnits="userSpaceOnUse" >
            <stop offset="0" stop-color="rgb(255, 153, 51)" stop-opacity="1" />
            <stop offset="1" stop-color="rgb(255, 120, 51)" stop-opacity="1" />
        </linearGradient>
        <linearGradient id="badgeovercast-b-bezier2" x1="13" y1="23.5" x2="13" y2="2.5" gradientUnits="userSpaceOnUse" >
            <stop offset="0" stop-color="rgb(41, 46, 51)" stop-opacity="1" />
            <stop offset="1" stop-color="rgb(67, 78, 89)" stop-opacity="1" />
        </linearGradient>
    </defs>
    <path id="badgeovercast-bezier" fill-rule="evenodd" stroke="none" fill="url(#badgeovercast-a2-bezier)" d="M 25.01,22.17 C 24.76,22.79 24.2,23.66 23.41,24.27 22.95,24.62 22.4,24.96 21.65,25.18 20.85,25.42 19.86,25.5 18.63,25.5 L 7.37,25.5 C 6.15,25.5 5.15,25.42 4.35,25.18 3.6,24.96 3.05,24.62 2.59,24.27 1.8,23.66 1.24,22.79 1,22.17 0.51,20.92 0.5,19.52 0.5,18.63 L 0.5,7.37 C 0.5,6.48 0.51,5.08 1,3.84 1.24,3.21 1.8,2.34 2.59,1.73 3.05,1.38 3.6,1.04 4.35,0.82 5.15,0.58 6.15,0.5 7.37,0.5 L 18.63,0.5 C 19.86,0.5 20.85,0.58 21.65,0.82 22.4,1.04 22.95,1.38 23.41,1.73 24.2,2.34 24.76,3.21 25.01,3.84 25.5,5.08 25.5,6.48 25.5,7.37 L 25.5,18.63 C 25.5,19.52 25.5,20.92 25.01,22.17 Z M 25.01,22.17" />
    <g id="badgeovercast-group">
        <circle id="badgeovercast-oval" stroke="none" fill="rgb(255, 255, 255)" cx="13" cy="13" r="9.5" />
        <path id="badgeovercast-bezier2" fill-rule="evenodd" stroke="none" fill="url(#badgeovercast-b-bezier2)" d="M 13,23.5 C 7.2,23.5 2.5,18.8 2.5,13 2.5,7.2 7.2,2.5 13,2.5 18.8,2.5 23.5,7.2 23.5,13 23.5,18.8 18.8,23.5 13,23.5 Z M 13,19.37 L 13.81,18.56 13,15.54 12.19,18.56 13,19.37 Z M 12,19.29 L 11.6,20.76 12.54,19.83 12,19.29 Z M 14,19.29 L 13.47,19.83 14.4,20.76 14,19.29 Z M 14.73,22.02 L 13,20.29 11.27,22.02 11.28,22.02 C 12.42,22.24 13.58,22.24 14.71,22.02 L 14.73,22.02 Z M 13,3.82 L 13,3.81 C 7.92,3.81 3.82,7.92 3.82,13 3.82,16.91 6.3,20.4 10,21.68 L 11.95,14.39 C 11.18,13.81 11.02,12.71 11.61,11.94 12.19,11.17 13.28,11.01 14.05,11.6 14.82,12.18 14.98,13.28 14.39,14.05 14.3,14.17 14.18,14.29 14.05,14.39 L 16.01,21.68 16,21.68 C 20.79,20.03 23.34,14.8 21.69,10 20.41,6.3 16.92,3.81 13,3.81 L 13,3.82 Z M 13,3.82" />
        <path id="badgeovercast-bezier3" fill-rule="evenodd" stroke="none" fill="rgb(255, 153, 51)" d="M 19,17.55 L 18.99,17.56 C 18.77,17.84 18.37,17.89 18.08,17.68 L 18.09,17.68 C 17.81,17.49 17.74,17.1 17.93,16.83 17.94,16.82 17.94,16.82 17.95,16.81 L 17.98,16.76 C 19.54,14.45 19.51,11.43 17.92,9.13 L 17.95,9.19 C 17.74,8.92 17.79,8.54 18.06,8.34 18.07,8.33 18.08,8.32 18.09,8.32 L 18.09,8.31 C 18.38,8.11 18.78,8.17 19,8.45 20.91,11.18 20.91,14.82 19,17.55 Z M 15.81,15.83 L 15.8,15.83 C 15.56,15.54 15.57,15.11 15.84,14.83 16.72,13.77 16.72,12.23 15.84,11.17 15.57,10.89 15.56,10.46 15.8,10.16 L 15.81,10.16 C 16.03,9.9 16.42,9.87 16.68,10.09 16.7,10.1 16.72,10.12 16.73,10.14 L 16.76,10.16 C 18.19,11.81 18.17,14.27 16.7,15.89 L 16.73,15.86 C 16.49,16.11 16.09,16.12 15.84,15.88 15.84,15.86 15.82,15.84 15.81,15.83 Z M 10.19,15.83 C 9.97,16.09 9.58,16.13 9.32,15.91 9.3,15.89 9.28,15.88 9.27,15.86 L 9.24,15.83 C 7.81,14.19 7.83,11.73 9.3,10.1 L 9.27,10.14 C 9.51,9.89 9.91,9.88 10.16,10.12 10.16,10.14 10.18,10.15 10.19,10.16 L 10.2,10.16 C 10.44,10.46 10.43,10.89 10.16,11.17 9.28,12.23 9.28,13.77 10.16,14.83 10.43,15.11 10.44,15.54 10.2,15.83 L 10.19,15.83 Z M 7.91,17.69 C 7.62,17.89 7.22,17.83 7,17.55 5.09,14.82 5.09,11.18 7,8.45 L 7.01,8.44 C 7.22,8.16 7.63,8.11 7.92,8.32 L 7.91,8.32 C 8.19,8.51 8.26,8.9 8.06,9.17 8.06,9.18 8.06,9.18 8.05,9.19 L 8.02,9.24 C 6.46,11.55 6.49,14.57 8.08,16.87 L 8.05,16.81 C 8.26,17.08 8.21,17.46 7.94,17.66 7.93,17.67 7.92,17.68 7.91,17.68 L 7.91,17.69 Z M 7.91,17.69" />
    </g>
</svg>
